gtk-icons/Papirus-GTK/16x16/mimetypes/application-vnd.kde.kphotoalbum-import.svg

<?xml version="1.0" encoding="UTF-8" standalone="no"?>
<svg xmlns="http://www.w3.org/2000/svg" height="16px" width="16px" version="1.1" xmlns:xlink="http://www.w3.org/1999/xlink" viewBox="0 0 16 16">
 <defs>
  <linearGradient id="linear0" y2="278" gradientUnits="userSpaceOnUse" x2="160" gradientTransform="matrix(.35 0 0 .35 -48 -83.35)" y1="267" x1="160">
   <stop stop-opacity=".2" offset="0"/>
   <stop stop-opacity="0" offset="1"/>
  </linearGradient>
 </defs>
 <g id="surface1">
  <path fill="#ff7669" d="m1.75 2c-0.4141 0-0.75 0.3359-0.75 0.75v8.25h14v-8.25c0-0.4141-0.336-0.75-0.75-0.75zm13.188 11.516c-0.036 0.082-0.079 0.172-0.141 0.234 0.062-0.07 0.105-0.145 0.141-0.234zm-0.141 0.234c-0.125 0.125-0.305 0.203-0.5 0.203l-12.547 0.047h12.5c0.219 0 0.41-0.102 0.547-0.25z"/>
  <path fill="#fff" d="m1.75 2c-0.4141 0-0.75 0.3359-0.75 0.75v0.5c0-0.4141 0.3359-0.75 0.75-0.75h12.5c0.414 0 0.75 0.3359 0.75 0.75v-0.5c0-0.4141-0.336-0.75-0.75-0.75z" fill-opacity=".2"/>
  <path fill-rule="evenodd" d="m11 5c1.105 0 2 0.8945 2 2s-0.895 2-2 2c-1.1055 0-2-0.8945-2-2s0.8945-2 2-2z" fill-opacity=".2"/>
  <path fill-rule="evenodd" fill="#fffde4" d="m11 4.5c1.105 0 2 0.8945 2 2s-0.895 2-2 2c-1.1055 0-2-0.8945-2-2s0.8945-2 2-2z"/>
  <path fill="#d12f79" d="m1 11v2.25s0 0.754 0.75 0.75l12.551-0.051c0.387 0 0.699-0.312 0.699-0.699v-2.25z"/>
  <path d="m1 11l3 3h10.25c0.75 0 0.75-0.75 0.75-0.75v-2.25z" fill="url(#linear0)"/>
  <path d="m1 11v-0.398s1.0078-0.6684 1.293-0.727c0.2851-0.0586 0.6211-0.0117 0.9648 0.0547 0.3438 0.0664 0.8594 0.1523 1.0195 0.1563 0.1602 0.008 0.4493-0.012 0.7891-0.031 0.3359-0.024 0.8945-0.039 1.0703-0.039 0.1719 0 0.6094 0.023 1.0703 0.054 0.4649 0.028 1.1016 0.075 1.2461 0.086 0.1446 0.016 0.3164 0.039 0.5078 0.067 0.1914 0.027 0.5274 0.066 0.6446 0.078 0.1172 0.008 0.3906 0.047 0.7105 0.078 0.317 0.027 0.825 0.039 0.973 0.027 0.145-0.011 0.453-0.121 0.797-0.218 0.344-0.102 0.723-0.1958 1.008-0.172 0.289 0.023 1.906 0.586 1.906 0.586v0.398z"/>
  <path d="m1.75 14c-0.4141 0-0.75-0.336-0.75-0.75v-0.5c0 0.414 0.3359 0.75 0.75 0.75h12.5c0.414 0 0.75-0.336 0.75-0.75v0.5c0 0.414-0.336 0.75-0.75 0.75z" fill-opacity=".10196"/>
  <path d="m1 12.75v0.5c0 0.414 0.3359 0.75 0.75 0.75h12.5c0.414 0 0.75-0.336 0.75-0.75v-0.5c0 0.414-0.336 0.75-0.75 0.75h-12.5c-0.4141 0-0.75-0.336-0.75-0.75z" fill-opacity=".30196"/>
 </g>
</svg>

<?xml version="1.0" encoding="UTF-8" standalone="no"?>
<svg
   xmlns:dc="http://purl.org/dc/elements/1.1/"
   xmlns:cc="http://creativecommons.org/ns#"
   xmlns:rdf="http://www.w3.org/1999/02/22-rdf-syntax-ns#"
   xmlns:svg="http://www.w3.org/2000/svg"
   xmlns="http://www.w3.org/2000/svg"
   xmlns:sodipodi="http://sodipodi.sourceforge.net/DTD/sodipodi-0.dtd"
   xmlns:inkscape="http://www.inkscape.org/namespaces/inkscape"
   height="16px"
   width="16px"
   version="1.1"
   viewBox="0 0 16 16"
   id="svg2"
   inkscape:version="0.91 r"
   sodipodi:docname="application-vnd.kde.kphotoalbum-import.svg">
  <metadata
     id="metadata32">
    <rdf:RDF>
      <cc:Work
         rdf:about="">
        <dc:format>image/svg+xml</dc:format>
        <dc:type
           rdf:resource="http://purl.org/dc/dcmitype/StillImage" />
      </cc:Work>
    </rdf:RDF>
  </metadata>
  <sodipodi:namedview
     pagecolor="#ffffff"
     bordercolor="#666666"
     borderopacity="1"
     objecttolerance="10"
     gridtolerance="10"
     guidetolerance="10"
     inkscape:pageopacity="0"
     inkscape:pageshadow="2"
     inkscape:window-width="1535"
     inkscape:window-height="876"
     id="namedview30"
     showgrid="false"
     inkscape:zoom="14.75"
     inkscape:cx="-3.9322034"
     inkscape:cy="8"
     inkscape:window-x="65"
     inkscape:window-y="24"
     inkscape:window-maximized="1"
     inkscape:current-layer="svg2" />
  <defs
     id="defs4">
    <linearGradient
       id="linear0"
       y2="278"
       gradientUnits="userSpaceOnUse"
       x2="160"
       gradientTransform="matrix(0.35,0,0,0.35,-48,-83.35)"
       y1="267"
       x1="160">
      <stop
         stop-opacity=".2"
         offset="0"
         id="stop7" />
      <stop
         stop-opacity="0"
         offset="1"
         id="stop9" />
    </linearGradient>
  </defs>
  <path
     style="fill:#ff7669"
     inkscape:connector-curvature="0"
     id="path12"
     d="M 1.75,2 C 1.3359,2 1,2.3359 1,2.75 L 1,11 15,11 15,2.75 C 15,2.3359 14.664,2 14.25,2 Z m 13.188,11.516 c -0.036,0.082 -0.079,0.172 -0.141,0.234 0.062,-0.07 0.105,-0.145 0.141,-0.234 z m -0.141,0.234 c -0.125,0.125 -0.305,0.203 -0.5,0.203 L 1.75,14 l 12.5,0 c 0.219,0 0.41,-0.102 0.547,-0.25 z" />
  <path
     style="fill:#ffffff;fill-opacity:0.2"
     inkscape:connector-curvature="0"
     id="path14"
     d="M 1.75,2 C 1.3359,2 1,2.3359 1,2.75 l 0,0.5 C 1,2.8359 1.3359,2.5 1.75,2.5 l 12.5,0 C 14.664,2.5 15,2.8359 15,3.25 l 0,-0.5 C 15,2.3359 14.664,2 14.25,2 Z" />
  <path
     style="fill-opacity:0.2;fill-rule:evenodd"
     inkscape:connector-curvature="0"
     id="path16"
     d="m 11,4.5 c 1.105,0 2,0.8945 2,2 0,1.1055 -0.895,2 -2,2 -1.1055,0 -2,-0.8945 -2,-2 0,-1.1055 0.8945,-2 2,-2 z" />
  <path
     style="fill:#fffde4;fill-rule:evenodd"
     inkscape:connector-curvature="0"
     id="path18"
     d="m 11,4 c 1.105,0 2,0.8945 2,2 0,1.1055 -0.895,2 -2,2 C 9.8945,8 9,7.1055 9,6 9,4.8945 9.8945,4 11,4 Z" />
  <path
     style="fill:#d12f79"
     inkscape:connector-curvature="0"
     id="path20"
     d="m 1,11 0,2.25 c 0,0 0,0.754 0.75,0.75 L 14.301,13.949 C 14.688,13.949 15,13.637 15,13.25 L 15,11 Z" />
  <path
     inkscape:connector-curvature="0"
     style="fill:url(#linear0)"
     id="path22"
     d="m 1,11 3,3 10.25,0 C 15,14 15,13.25 15,13.25 L 15,11 Z" />
  <path
     inkscape:connector-curvature="0"
     id="path24"
     d="m 1,11 0,-0.398 c 0,0 1.0078,-0.6684 1.293,-0.727 0.2851,-0.0586 0.6211,-0.0117 0.9648,0.0547 0.3438,0.0664 0.8594,0.1523 1.0195,0.1563 0.1602,0.008 0.4493,-0.012 0.7891,-0.031 0.3359,-0.024 0.8945,-0.039 1.0703,-0.039 0.1719,0 0.6094,0.023 1.0703,0.054 0.4649,0.028 1.1016,0.075 1.2461,0.086 0.1446,0.016 0.3164,0.039 0.5078,0.067 0.1914,0.027 0.5274,0.066 0.6446,0.078 0.1172,0.008 0.3906,0.047 0.7105,0.078 0.317,0.027 0.825,0.039 0.973,0.027 0.145,-0.011 0.453,-0.121 0.797,-0.218 0.344,-0.102 0.723,-0.1958 1.008,-0.172 C 13.383,10.039 15,10.602 15,10.602 L 15,11 Z" />
  <path
     style="fill-opacity:0.10196001"
     inkscape:connector-curvature="0"
     id="path26"
     d="M 1.75,14 C 1.3359,14 1,13.664 1,13.25 l 0,-0.5 c 0,0.414 0.3359,0.75 0.75,0.75 l 12.5,0 c 0.414,0 0.75,-0.336 0.75,-0.75 l 0,0.5 C 15,13.664 14.664,14 14.25,14 Z" />
  <path
     style="fill-opacity:0.30196001"
     inkscape:connector-curvature="0"
     id="path28"
     d="m 1,12.75 0,0.5 C 1,13.664 1.3359,14 1.75,14 l 12.5,0 C 14.664,14 15,13.664 15,13.25 l 0,-0.5 c 0,0.414 -0.336,0.75 -0.75,0.75 l -12.5,0 C 1.3359,13.5 1,13.164 1,12.75 Z" />
</svg>
